X:1
T:Title
%%score 1 2 3
L:1/8
Q:1/4=80
M:4/4
K:C
V:1 treble nm="Strings 1, Copyright 1996"
V:2 bass nm="Strings 2, by Lassen Technologies."
V:3 treble nm="English Horn, Permission to use freely"
V:1
 z4 z C [CE]2 | [DF] [EG]2 [EG] [FA]2 [GB][Ac]- | [Ac][FA] [EG]2 [CE][CE][B,D]C | %3
[Q:1/4=70] [CE]2 [B,D][Q:1/4=60]C- C[Q:1/4=80]C [CE]2 | [DF] [EG]2 [EG] [FA]2 [GB][Ac]- | %5
 [Ac][FA] [EG]2 [CE][CE][B,D]C | [B,D]2 [CE][B,D]- [B,D]C [CE]2 | [DF] [EG]2 [EG] [FA]2 [GB][Ac]- | %8
 [Ac][FA] [EG]2 [CE][CE][B,D]C | [CE]2 [B,D]C- C[EG] [Ec]2 | [FB] [Gc]2 [FA] [EG]2 [CE][EG]- | %11
 [EG][EG] [Ec]2 [FB] [Gc]2 [FA] | [EG]2 [CE][B,D]- [B,D]C [CE]2 | [DF] [EG]2 [EG] [FA]2 [GB][Ac]- | %14
 [Ac][FA] [EG]2 [CE][CE][B,D]C |[Q:1/4=70] [CE]2 [B,D][Q:1/4=60]C- C[Q:1/4=80]C [CE]2 | %16
 [DF] [EG]2 [EG] [FA]2 [GB][Ac]- | [Ac][FA] [EG]2 [CE][CE][B,D]C | [B,D]2 [CE][B,D]- [B,D]C [CE]2 | %19
 [DF] [EG]2 [EG] [FA]2 [GB][Ac]- | [Ac][FA] [EG]2 [CE][CE][B,D]C | [CE]2 [B,D]C- C[EG] [Ec]2 | %22
 [FB] [Gc]2 [FA] [EG]2 [CE][EG]- | [EG][EG] [Ec]2 [FB] [Gc]2 [FA] | [EG]2 [CE][B,D]- [B,D]C [CE]2 | %25
 [DF] [EG]2 [EG] [FA]2 [GB][Ac]- | [Ac][FA] [EG]2 [CE][CE][B,D]C | %27
[Q:1/4=70] [CE]2 [B,D][Q:1/4=60]C- C[Q:1/4=80]C [CE]2 | [DF] [EG]2 [EG] [FA]2 [GB][Ac]- | %29
 [Ac][FA] [EG]2 [CE][CE][B,D]C | [B,D]2 [CE][B,D]- [B,D]C [CE]2 | [DF] [EG]2 [EG] [FA]2 [GB][Ac]- | %32
 [Ac][FA] [EG]2 [CE][CE][B,D]C | [CE]2 [B,D]C- C[EG] [Ec]2 | [FB] [Gc]2 [FA] [EG]2 [CE][EG]- | %35
 [EG][EG] [Ec]2 [FB] [Gc]2 [FA] | [EG]2 [CE][B,D]- [B,D]C [CE]2 | [DF] [EG]2 [EG] [FA]2 [GB][Ac]- | %38
 [Ac][FA] [EG]2[Q:1/4=72] [CE][CE][B,D]C |[Q:1/4=70] [CE]2 [B,D][Q:1/4=47]C- C3/2 z/ z2 |] %40
V:2
 z4 z [C,E,] [C,G,]2 | [C,G,] [C,C]2 [C,C] [F,C]2 [F,C][F,C]- | %2
 [F,C][F,C] [C,C]2 [C,G,][C,G,]F,[C,E,] | [G,,G,]2 [G,,F,][C,E,]- [C,E,][C,E,] [C,G,]2 | %4
 [C,G,] [C,C]2 [C,C] [F,C]2 [F,C][F,C]- | [F,C][F,C] [C,C]2 [C,G,][C,G,]F,[C,E,] | %6
 [G,,G,]2 [G,,G,][G,,G,]- [G,,G,][C,E,] [C,G,]2 | [C,G,] [C,C]2 [C,C] [F,C]2 [F,C][F,C]- | %8
 [F,C][F,C] [C,C]2 [C,G,][C,G,]F,[C,E,] | [G,,G,]2 [G,,F,][C,E,]- [C,E,][C,G,] [C,G,]2 | %10
 [D,G,] [E,G,]2 [F,C] [C,C]2 [C,G,][C,C]- | [C,C][C,G,] [C,G,]2 [D,G,] [E,G,]2 [F,C] | %12
 [C,C]2 [C,G,][G,,G,]- [G,,G,][C,E,] [C,G,]2 | [C,G,] [C,C]2 [C,C] [F,C]2 [F,C][F,C]- | %14
 [F,C][F,C] [C,C]2 [C,G,][C,G,]F,[C,E,] | [G,,G,]2 [G,,F,][C,E,]- [C,E,][C,E,] [C,G,]2 | %16
 [C,G,] [C,C]2 [C,C] [F,C]2 [F,C][F,C]- | [F,C][F,C] [C,C]2 [C,G,][C,G,]F,[C,E,] | %18
 [G,,G,]2 [G,,G,][G,,G,]- [G,,G,][C,E,] [C,G,]2 | [C,G,] [C,C]2 [C,C] [F,C]2 [F,C][F,C]- | %20
 [F,C][F,C] [C,C]2 [C,G,][C,G,]F,[C,E,] | [G,,G,]2 [G,,F,][C,E,]- [C,E,][C,G,] [C,G,]2 | %22
 [D,G,] [E,G,]2 [F,C] [C,C]2 [C,G,][C,C]- | [C,C][C,G,] [C,G,]2 [D,G,] [E,G,]2 [F,C] | %24
 [C,C]2 [C,G,][G,,G,]- [G,,G,][C,E,] [C,G,]2 | [C,G,] [C,C]2 [C,C] [F,C]2 [F,C][F,C]- | %26
 [F,C][F,C] [C,C]2 [C,G,][C,G,]F,[C,E,] | [G,,G,]2 [G,,F,][C,E,]- [C,E,][C,E,] [C,G,]2 | %28
 [C,G,] [C,C]2 [C,C] [F,C]2 [F,C][F,C]- | [F,C][F,C] [C,C]2 [C,G,][C,G,]F,[C,E,] | %30
 [G,,G,]2 [G,,G,][G,,G,]- [G,,G,][C,E,] [C,G,]2 | [C,G,] [C,C]2 [C,C] [F,C]2 [F,C][F,C]- | %32
 [F,C][F,C] [C,C]2 [C,G,][C,G,]F,[C,E,] | [G,,G,]2 [G,,F,][C,E,]- [C,E,][C,G,] [C,G,]2 | %34
 [D,G,] [E,G,]2 [F,C] [C,C]2 [C,G,][C,C]- | [C,C][C,G,] [C,G,]2 [D,G,] [E,G,]2 [F,C] | %36
 [C,C]2 [C,G,][G,,G,]- [G,,G,][C,E,] [C,G,]2 | [C,G,] [C,C]2 [C,C] [F,C]2 [F,C][F,C]- | %38
 [F,C][F,C] [C,C]2 [C,G,][C,G,]F,[C,E,] | [G,,G,]2 [G,,F,][C,E,]- [C,E,]3/2 z/ z2 |] %40
V:3
 z4 z C [CE]2 | [DF] [EG]2 [EG] [FA]2 [GB][Ac]- | [Ac][FA] [EG]2 [CE][CE][B,D]C | %3
 [CE]2 [B,D]C- CC [CE]2 | [DF] [EG]2 [EG] [FA]2 [GB][Ac]- | [Ac][FA] [EG]2 [CE][CE][B,D]C | %6
 [B,D]2 [CE][B,D]- [B,D]C [CE]2 | [DF] [EG]2 [EG] [FA]2 [GB][Ac]- | [Ac][FA] [EG]2 [CE][CE][B,D]C | %9
 [CE]2 [B,D]C- C[EG] [Ec]2 | [FB] [Gc]2 [FA] [EG]2 [CE][EG]- | [EG][EG] [Ec]2 [FB] [Gc]2 [FA] | %12
 [EG]2 [CE][B,D]- [B,D]C [CE]2 | [DF] [EG]2 [EG] [FA]2 [GB][Ac]- | [Ac][FA] [EG]2 [CE][CE][B,D]C | %15
 [CE]2 [B,D]C- CC [CE]2 | [DF] [EG]2 [EG] [FA]2 [GB][Ac]- | [Ac][FA] [EG]2 [CE][CE][B,D]C | %18
 [B,D]2 [CE][B,D]- [B,D]C [CE]2 | [DF] [EG]2 [EG] [FA]2 [GB][Ac]- | [Ac][FA] [EG]2 [CE][CE][B,D]C | %21
 [CE]2 [B,D]C- C[EG] [Ec]2 | [FB] [Gc]2 [FA] [EG]2 [CE][EG]- | [EG][EG] [Ec]2 [FB] [Gc]2 [FA] | %24
 [EG]2 [CE][B,D]- [B,D]C [CE]2 | [DF] [EG]2 [EG] [FA]2 [GB][Ac]- | [Ac][FA] [EG]2 [CE][CE][B,D]C | %27
 [CE]2 [B,D]C- CC [CE]2 | [DF] [EG]2 [EG] [FA]2 [GB][Ac]- | [Ac][FA] [EG]2 [CE][CE][B,D]C | %30
 [B,D]2 [CE][B,D]- [B,D]C [CE]2 | [DF] [EG]2 [EG] [FA]2 [GB][Ac]- | [Ac][FA] [EG]2 [CE][CE][B,D]C | %33
 [CE]2 [B,D]C- C[EG] [Ec]2 | [FB] [Gc]2 [FA] [EG]2 [CE][EG]- | [EG][EG] [Ec]2 [FB] [Gc]2 [FA] | %36
 [EG]2 [CE][B,D]- [B,D]C [CE]2 | [DF] [EG]2 [EG] [FA]2 [GB][Ac]- | [Ac][FA] [EG]2 [CE][CE][B,D]C | %39
 [CE]2 [B,D]C- C3/2 z/ z2 |] %40

